X:1
T:I’m Saved by the Blood
T:I’m Saved by the Blood
T:Anthony Johnson Showalter
T:Anthony Johnson Showalter, 1908
T:Public Domain Courtesy of the Cyber Hymnal™
T:Public Domain Courtesy of the Cyber Hymnal™
C:Anthony Johnson Showalter
Z:Public Domain
Z:Courtesy of the Cyber Hymnal™
%%score ( 1 2 ) ( 3 4 )
L:1/8
Q:1/4=155
M:6/8
K:D
V:1 treble 
V:2 treble 
V:3 bass 
V:4 bass 
V:1
 [FA]2 x12 | [FA]2 [^Ec]2 [EB]2 [FA]2 [Ec]2 [EB]2 | [FA]2 [Fd]2 [Fd]2 [Fd]4 [DF]2 | %3
w: 1.~I’m|saved by the blood of the|Cru- ci- fied One, And|
w: 2.~I’m|saved by the blood of the|Cru- ci- fied One, The|
w: 3.~I’m|saved by the blood of the|Cru- ci- fied One, The|
 [EG]2 [Gc]2 [GB]2 [EG]2 [Gc]2 [GB]2 | [GB]2 [FA]2 [^E^G]2 [FA]4 [FA]2 | %5
w: kept by the pow- er of|God’s bless- èd Son; All|
w: work of sal- va- tion by|Je- sus was done; My|
w: Sav- ior will fin- ish the|work He’s be- gun; I’m|
 [FA]2 [^Ec]2 [EB]2 [FA]2 [Ec]2 [EB]2 | [FA]2 [Fd]2 [Fd]2 [Fd]4 [Fd]2 | %7
w: glo- ry to Je- sus, life’s|race I can run, I’m|
w: sins are all par- doned, my|peace is now won, I’m|
w: saved, and I’m kept by the|Fa- ther’s own Son, Yes,|
 [Ge]2 [Gd]2 [GB]2 [FA]2 [DF]2 D2 | [DF]2 [DF]2 [CE]2 D4 z2 ||"^Refrain" A4- A2 d2 B2 x2 | %10
w: saved by the blood of the|Cru- ci- fied One.||
w: saved by the blood of the|Cru- ci- fied One.|Saved * by the|
w: saved by the blood of the|Cru- ci- fied One.||
 A6- A2 d2 B2 | A6- [FA]2 [Fd]2 [^EB]2 | A6- [FA]4 z2 | G6- G2 c2 B2 | G6- G2 c2 B2 | %15
w: |||||
w: blood * of the|Cru- ci- fied One!|* Kept|* * by the|pow- * er of|
w: |||||
 G6- [EG]2 [Ec]2 [CB]2 | F6- [DF]4 [FA]2 | [FA]2 [^Ec]2 [EB]2 [FA]2 [Ec]2 [EB]2 | %18
w: |||
w: God’s bless- èd Son!|* All glo-|* ry to Je- sus, my|
w: |||
 [FA]2 [Fd]2 [Fd]2 [Fd]4 [Fd]2 | [Ge]2 [Gd]2 [GB]2 [FA]2 [DF]2 D2 | [DF]2 [DF]2 [CE]2 D4 z2 |] %21
w: |||
w: fears are all gone; I’m|saved by the blood of the|Cru- ci- fied One.|
w: |||
V:2
 x14 | x12 | x12 | x12 | x12 | x12 | x12 | x10 D2 | x6 D4 x2 || (F2 F2 F2 F6) | (F2 F2 F2 F6) | %11
 F2 F2 F2 x6 | F2 F2 F2 x6 | (E2 E2 E2 E6) | (E2 E2 E2 E6) | E2 E2 E2 x6 | D2 D2 D2 x6 | x12 | %18
 x12 | x10 D2 | x6 D4 x2 |] %21
V:3
 [D,A,]2 [D,A,]2 [D,^G,]2 [D,G,]2 [D,A,]2 [D,G,]2 [D,G,]2 | %1
w: |
 [D,A,]2 [D,A,]2 [D,A,]2 [D,A,]4 [D,A,]2 | [A,,C]2 [A,,C]2 [A,,C]2 [A,,C]2 [A,,C]2 [A,,C]2 | %3
w: ||
 [D,D]2 [D,D]2 [D,D]2 [D,D]4 [D,A,]2 | [D,A,]2 [D,^G,]2 [D,G,]2 [D,A,]2 [D,G,]2 [D,G,]2 | %5
w: ||
 [D,A,]2 [D,A,]2 [D,A,]2 [D,A,]4 [D,A,]2 | [G,B,]2 [G,B,]2 [G,D]2 [D,D]2 [D,A,]2 [F,A,]2 | %7
w: ||
 A,2 A,2 [A,,G,]2 [D,F,]4 z2 | [D,D]2 [D,D]2 [D,D]2 [D,D]6 || [D,D]2 [D,D]2 [D,D]2 [D,D]6 | %10
w: Glo- ry, * *|I’m saved! saved by|the blood, Saved by|
 [D,D]2 [D,D]2 [D,D]2 [D,D]2 [D,A,]2 [D,^G,]2 | [D,A,]2 [F,D]2 [A,D]2 [D,D]4 z2 | %12
w: the blood of the Cru- ci-|fied One! Glo- ry,|
 [A,,C]2 [A,,C]2 [A,,C]2 [A,,C]6 | [A,,C]2 [A,,C]2 [A,,C]2 [A,,C]6 | %14
w: I’m kept! kept by|the pow’r, Kept by|
 [A,,C]2 [A,,C]2 [A,,C]2 [A,,C]2 [A,,A,]2 [A,,A,]2 | [D,A,]2 [D,A,]2 [D,A,]2 [D,A,]4 [D,A,]2 | %16
w: the pow- er of God’s bless-|èd Son! * * *|
 [D,A,]2 [D,^G,]2 [D,G,]2 [D,A,]2 [D,G,]2 [D,G,]2 | [D,A,]2 [D,A,]2 [D,A,]2 [D,A,]4 [D,A,]2 | %18
w: ||
 [G,B,]2 [G,B,]2 [G,D]2 [D,D]2 [D,A,]2 [F,A,]2 | A,2 A,2 [A,,G,]2 [D,F,]4 z2 | x12 |] %21
w: |||
V:4
 x14 | x12 | x12 | x12 | x12 | x12 | x12 | A,2 A,2 x8 | x12 || x12 | x12 | x12 | x12 | x12 | x12 | %15
 x12 | x12 | x12 | x12 | A,2 A,2 x8 | x12 |] %21

